static/images/board/shogi.svg

<svg height="1200" viewBox="0 0 1100 1200" width="1100" xmlns="http://www.w3.org/2000/svg"><g transform="translate(0 1192.0247)"><path d="m.798767-1191.226h1098.4025v1198.4025h-1098.4025z" fill="#fdd775" stroke="#fea" stroke-linecap="square" stroke-width="1.59757"/><ellipse cx="367.02081" cy="-791.63641" rx="8.056667" ry="8.789018" stroke-width="2.27832"/><ellipse cx="367.31638" cy="-392.11017" rx="8.056667" ry="8.789018" stroke-width="2.36497"/><ellipse cx="732.95502" cy="-791.64288" rx="8.056667" ry="8.789018" stroke-width="2.27665"/><ellipse cx="732.96094" cy="-392.43262" rx="8.056667" ry="8.789018" stroke-width="2.27832"/><path d="m1.0900461-1190.8305v1197.6116212m121.9799939-1197.6116212v1197.6116212m121.9802-1197.6116212v1197.6116212m121.97973-1197.6116212v1197.6116212m121.97999-1197.6116212c0 427.31655.26207 799.07425 0 1197.6116212m121.97973-1197.6116212v1197.6116212m121.98027-1197.6116212v1197.6116212m121.97986-1197.6116212v1197.6116212m121.98-1197.6116212v1197.6116212m121.98018-1197.6116212v1197.6116212m-1097.8199539-1197.6116212h1097.8199539m-1097.8199539 133.0681h1097.8199539m-1097.8199539 133.06784h1097.8199539m-1097.8199539 133.06811c371.6483539-1.24588 732.5610239-.14824 1097.8199539 0m-1097.8199539 133.06787h1097.8199539m-1097.8199539 133.06772h1097.8199539m-1097.8199539 133.06812h1097.8199539m-1097.8199539 133.06785h1097.8199539m-1097.8199539 133.06803h1097.8199539m-1097.8199539 133.0679812h1097.8199539" fill="none" stroke="#000" stroke-width="2.28088"/></g></svg>

<?xml version="1.0" encoding="UTF-8" standalone="no"?>
<svg
   version="1.1"
   id="svg4755"
   width="1100"
   height="1200"
   viewBox="0 0 1100 1200"
   sodipodi:docname="plain.svg"
   inkscape:version="1.2 (dc2aedaf03, 2022-05-15)"
   inkscape:export-filename="C:\Users\danle\OneDrive\Pictures\Chess Variants\Shogi\Boards\Square\solid-natural.png"
   inkscape:export-xdpi="96"
   inkscape:export-ydpi="96"
   xmlns:inkscape="http://www.inkscape.org/namespaces/inkscape"
   xmlns:sodipodi="http://sodipodi.sourceforge.net/DTD/sodipodi-0.dtd"
   xmlns="http://www.w3.org/2000/svg"
   xmlns:svg="http://www.w3.org/2000/svg"
   xmlns:rdf="http://www.w3.org/1999/02/22-rdf-syntax-ns#"
   xmlns:cc="http://creativecommons.org/ns#"
   xmlns:dc="http://purl.org/dc/elements/1.1/">
  <metadata
     id="metadata4761">
    <rdf:RDF>
      <cc:Work
         rdf:about="">
        <dc:format>image/svg+xml</dc:format>
        <dc:type
           rdf:resource="http://purl.org/dc/dcmitype/StillImage" />
      </cc:Work>
    </rdf:RDF>
  </metadata>
  <defs
     id="defs4759" />
  <sodipodi:namedview
     pagecolor="#ffffff"
     bordercolor="#666666"
     borderopacity="1"
     objecttolerance="10"
     gridtolerance="10"
     guidetolerance="10"
     inkscape:pageopacity="0"
     inkscape:pageshadow="2"
     inkscape:window-width="3840"
     inkscape:window-height="2050"
     id="namedview4757"
     showgrid="false"
     inkscape:zoom="0.70710678"
     inkscape:cx="339.41125"
     inkscape:cy="787.71695"
     inkscape:window-x="-12"
     inkscape:window-y="-12"
     inkscape:window-maximized="1"
     inkscape:current-layer="g4763"
     inkscape:document-rotation="0"
     inkscape:showpageshadow="2"
     inkscape:pagecheckerboard="0"
     inkscape:deskcolor="#d1d1d1"
     showguides="true">
    <sodipodi:guide
       position="-30,796"
       orientation="0,1"
       id="guide410"
       inkscape:locked="false" />
  </sodipodi:namedview>
  <g
     inkscape:groupmode="layer"
     inkscape:label="Image"
     id="g4763"
     transform="translate(0,1192.0247)">
    <rect
       style="fill:#fdd775;fill-opacity:1;stroke:#ffeeaa;stroke-width:1.59757;stroke-linecap:square;stroke-linejoin:miter;stroke-miterlimit:4;stroke-dasharray:none;stroke-opacity:1;paint-order:normal"
       id="rect5591-8"
       width="1098.4025"
       height="1198.4025"
       x="0.79876709"
       y="-1191.226" />
    <ellipse
       cx="367.02081"
       cy="-791.63641"
       id="circle843"
       style="stroke-width:2.27832"
       inkscape:export-xdpi="96"
       inkscape:export-ydpi="96"
       rx="8.0566673"
       ry="8.7890177" />
    <ellipse
       cx="367.31638"
       cy="-392.11017"
       id="circle845"
       style="stroke-width:2.36497"
       inkscape:export-xdpi="96"
       inkscape:export-ydpi="96"
       rx="8.0566673"
       ry="8.7890177" />
    <ellipse
       cx="732.95502"
       cy="-791.64288"
       id="circle847"
       style="stroke-width:2.27665"
       inkscape:export-xdpi="96"
       inkscape:export-ydpi="96"
       rx="8.0566673"
       ry="8.7890177" />
    <ellipse
       id="circle849"
       style="stroke-width:2.27832"
       cy="-392.43262"
       cx="732.96094"
       inkscape:export-xdpi="96"
       inkscape:export-ydpi="96"
       rx="8.0566673"
       ry="8.7890177" />
    <path
       d="M 1.0900461,-1190.8305 V 6.7811212 M 123.07004,-1190.8305 V 6.7811212 M 245.05024,-1190.8305 V 6.7811212 M 367.02997,-1190.8305 V 6.7811212 M 489.00996,-1190.8305 c 0,427.31655 0.26207,799.07425 0,1197.6116212 M 610.98969,-1190.8305 V 6.7811212 M 732.96996,-1190.8305 V 6.7811212 M 854.94982,-1190.8305 V 6.7811212 M 976.92982,-1190.8305 V 6.7811212 M 1098.91,-1190.8305 V 6.7811212 M 1.0900461,-1190.8305 H 1098.91 M 1.0900461,-1057.7624 H 1098.91 M 1.0900461,-924.69456 H 1098.91 M 1.0900461,-791.62645 c 371.6483539,-1.24588 732.5610239,-0.14824 1097.8199539,0 M 1.0900461,-658.55858 H 1098.91 M 1.0900461,-525.49086 H 1098.91 M 1.0900461,-392.42274 H 1098.91 M 1.0900461,-259.35489 H 1098.91 M 1.0900461,-126.28686 H 1098.91 M 1.0900461,6.7811212 H 1098.91"
       style="fill:none;fill-opacity:1;stroke:#000000;stroke-width:2.28088px"
       id="path22173"
       sodipodi:nodetypes="cccccccccccccccccccccccccccccccccccccccc"
       inkscape:export-xdpi="96"
       inkscape:export-ydpi="96" />
  </g>
</svg>
